X:346
T:Reel 346
M:4/4
K:Amaj
L:1/8
A>A, (3A,A,A, C>E (3EFG |Acec dcBA||CE (3FEF ECEC|DB, (3CDE F2ED:||2CEFG AGAF|EDCB, A,2z2|Efec AGAB|cdec  (3ded fd|ecAc AGAB|cdec d2cB| (3cde AG AGAE|EFGA Ece2ec|ABcA BA (3GFE |FAGB A2EF|
